!!!!SEGMENT: pl-cz--iii-451--005_maader-ludwik--missa-g-sanctus.krn
!!!cenid: 18xx:965
!!!COM: Maader, Ludwik
!!!COM-rismID: pe30020328
!!!CDT: <1794->1798
!!!CNT:
!!!OPR: Missa G
!!!OTL: Sanctus
!!!OMV: 005
!!!PDT: 1815
!!!AGN: Sacred; Mass
!!!SMS-siglum: PL-CZ
!!!SMS-shelfmark: III-451
!!!SMS-shelfwork: 001-005 M
!!!SMS-variant:
!!!SMS-altvar:
!!!NIFC-rismSourceID: 300000763
!!!NIFC-rismChildID: 300000763
!!!NIFC-islandoraID: pl-cz:38436
!!!URL-pdf-islandora: https://repozytorium.nifc.pl/islandora/object/pl-cz%3A38436/datastream/PDF/view
!!!URL-scan: https://polish.musicsources.pl/pl/lokalizacje/galeria/rekopisy/6930/1 @EN{Scan on Polish Music Sources Website} @PL{Skany w portalu Dziedzictwo Muzyki Polskiej w otwartym dostępie}
!!!ONB-nifc: UWAGA: części Mszy: Kyrie, Gloria, Credo, Et incarnatus, Sanctus, Pleni sunt, Benedicuts, Agnus Dei
!!!OMD: Andante
!!!AIN: 1 bass 2 cor 2 flt 1 organ 2 soprn 2 violn
!!!key: G
**kern	**kern	**text	**dynam	**kern	**dynam	**kern	**dynam	**kern	**text	**kern	**text	**kern	**text	**kern	**kern	**kern	**dynam	**kern	**dynam
*part10	*part10	*part10	*part10	*part9	*part9	*part8	*part8	*part7	*part7	*part6	*part6	*part5	*part5	*part4	*part3	*part2	*part2	*part1	*part1
*staff11	*staff10	*staff10	*	*staff9	*	*staff8	*	*staff7	*staff7	*staff6	*staff6	*staff5	*staff5	*staff4	*staff3	*staff2	*	*staff1	*
*I"ORGANO CONCERTANDO	*I"ORGANO CONCERTANDO	*	*	*I"Violino SECONDO	*	*I"Violino Primo	*	*I"BASSO	*	*I"CANTO SeCONDO	*	*I"CANTO Primo	*	*I"Cornu Secondo	*I"Cornu Primo in g	*I"flauto Secundo	*	*I"flauto Primo	*
*I'org conc (=bc)	*I'org conc (=bc)	*	*	*I'vl 2	*	*I'vl 1	*	*I'B	*	*I'S 2	*	*I'S 1	*	*I'cor 2	*I'cor 1	*I'fl 2	*	*I'fl 1	*
*Iorgan	*Iorgan	*	*	*Ivioln	*	*Ivioln	*	*Ibass	*	*Isoprn	*	*Isoprn	*	*Icor	*Icor	*Iflt	*	*Iflt	*
*ICklav	*ICklav	*	*	*ICstr	*	*ICstr	*	*ICvox	*	*ICvox	*	*ICvox	*	*ICbras	*ICbras	*ICww	*	*ICww	*
*clefF4	*clefG2	*	*	*clefG2	*	*clefG2	*	*clefF4	*	*clefC1	*	*clefC1	*	*clefG2	*clefG2	*clefG2	*	*clefG2	*
*ITrd-1c-2	*ITrd-1c-2	*	*	*	*	*	*	*	*	*	*	*	*	*ITrd3c5	*ITrd3c5	*	*	*	*
*ok[b-]	*ok[b-]	*	*	*	*	*	*	*	*	*	*	*	*	*	*	*	*	*	*
*k[f#]	*k[f#]	*	*	*k[f#]	*	*k[f#]	*	*k[f#]	*	*k[f#]	*	*k[f#]	*	*k[f#]	*k[f#]	*k[f#]	*	*k[f#]	*
*G:	*G:	*	*	*G:	*	*G:	*	*G:	*	*G:	*	*G:	*	*	*	*G:	*	*G:	*
*M3/4	*M3/4	*	*	*M3/4	*	*M3/4	*	*M3/4	*	*M3/4	*	*M3/4	*	*M3/4	*M3/4	*M3/4	*	*M3/4	*
*all\right	*all\right	*	*	*	*	*all\right	*	*	*	*	*	*	*	*	*	*	*	*	*
=1	=1	=1	=1	=1	=1	=1	=1	=1	=1	=1	=1	=1	=1	=1	=1	=1	=1	=1	=1
*2\right	*	*	*	*	*	*	*	*	*	*	*	*	*	*	*	*	*	*	*
!LO:TX:t=P:problem=metrum 3/2	!LO:TX:t=P:problem=metrum 3/2	!	!LO:DY:a:t=forte	!	!LO:DY:b:t=po	!	!	!LO:TX:t=P:problem=all\mixed right or left or middle&colon; global	!	!LO:TX:t=P:problem=all\mixed right or left or middle&colon; global	!	!LO:TX:t=P:problem=all\mixed right or left or middle&colon; global	!	!	!	!:global	!LO:DY:a	!	!LO:DY:a:t=forte
!	!	!	!	!	!	!	!	!	!	!	!	!	!	!	!	!	!LO:DY:a:t=for	!	!
2G\	4b/ 4dd	San-	f	4b/	p	4dd|\	.	4G\	San-	4b\	San-	4dd\	San-	4g\	4b\	4bb|\	f	4ddd\	f
!	!	!	!	!	!	!	!LO:DY:b:t=po.	!	!	!	!	!	!	!	!	!	!	!	!
.	4b/ 4dd	-ctus	.	4b/	.	4dd|\	p	4G\	-ctus	4b\	-ctus	4dd\	-ctus	4g\	4b\	4bb|\	.	4ddd\	.
4G\yy	8a/L 8cc	.	.	8a/L	.	(8cc\L	.	4r	.	4r	.	4r	.	4r	4r	(8aa\L	.	(8ccc\L	.
.	8g/J 8b	.	.	8g/J	.	8b\J)	.	.	.	.	.	.	.	.	.	8gg\J)	.	8bb\J)	.
=2	=2	=2	=2	=2	=2	=2	=2	=2	=2	=2	=2	=2	=2	=2	=2	=2	=2	=2	=2
!	!	!	!LO:DY:a:t=Piano	!LO:TX:a:i:t=dolce	!	!	!	!	!	!	!	!	!	!	!	!:global	!LO:DY:a:t=Piano	!	!LO:DY:a:t=pia
4d\	4g/ 4b	San-	p	4g/	.	4b|/	.	4d\	San-	4g\	San-	(4b\	San-	4G/	4g\	4dd\	p	4bb\	p
!	!	!	!	!	!	!	!	!	!	!	!	!	!	!LO:TX:t=P:problem=pod drugą wartością litera "g"	!	!	!	!	!
4d#X\	4f#/ 4a	-ctus	.	4f#/	.	4a|/	.	4d#X\	.	4f#\	.	4a\)	.	4B/ 4d	4a\	4cc\	.	4aa\	.
4e\	4g/	.	.	4g/	.	4g|/	.	4e\	-ctus	4g\	-ctus	4g|\	-ctus	4g\	4b\	4b\	.	4gg\	.
=3	=3	=3	=3	=3	=3	=3	=3	=3	=3	=3	=3	=3	=3	=3	=3	=3	=3	=3	=3
*	*^	*	*	*	*	*	*	*	*	*	*	*	*	*	*	*	*	*	*
*	*	*2\right	*	*	*	*	*	*	*	*	*	*	*	*	*	*	*	*	*	*
!	!	!	!	!LO:DY:a:t=forte	!	!	!	!LO:DY:a:t=for.	!	!	!	!	!	!	!	!	!	!LO:DY:a:t=for	!	!LO:DY:a:t=for
2c\	4ee/	2g\	San-	f	4g/	.	4ee|\	f	4c\	San-	4cc\	San-	4ee\	San-	4G/	4g\	4cc\	f	4eee\	f
.	4ee/	.	-ctus	.	4g/	.	4ee|\	.	4c\	-ctus	4cc\	-ctus	4ee\	-ctus	4G/	4g\	4cc\	.	4eee\	.
4B\	16dd/LL	4g\yy	.	.	4g/	.	4r	.	4r	.	4r	.	4r	.	4r	4r	4r	.	4r	.
.	16ee/	.	.	.	.	.	.	.	.	.	.	.	.	.	.	.	.	.	.	.
.	16ff#/	.	.	.	.	.	.	.	.	.	.	.	.	.	.	.	.	.	.	.
.	16gg/JJ	.	.	.	.	.	.	.	.	.	.	.	.	.	.	.	.	.	.	.
=4	=4	=4	=4	=4	=4	=4	=4	=4	=4	=4	=4	=4	=4	=4	=4	=4	=4	=4	=4	=4
!	!	!	!	!LO:DY:a:t=Piano	!LO:N:vis=4.	!	!	!LO:DY:a:t=pia	!	!	!	!	!	!	!	!	!	!LO:DY:a:t=Piano	!	!LO:DY:a:t=piano
4G\	8dd/L	4g\	.	p	(4g/	.	(8dd\L	p	4.G\	San-	4.g\	Do-	(8dd\L	Do-	4r	4r	(8bb\L	p	(8ddd\L	p
.	8cc/J	.	.	.	.	.	8cc\J)	.	.	.	.	.	8cc\J)	.	.	.	8aa\J)	.	8ccc\J)	.
!	!	!	!	!	!LO:N:vis=4.	!	!	!	!	!	!	!	!	!	!	!	!	!	!	!
4D/	(4cc/	8g\Lyy	.	.	4f#/)	.	4cc\	.	.	.	.	.	4cc|\	-mi-	4d/	4a\	4aa\	.	4ccc\	.
.	.	8f#|\J	.	.	.	.	.	.	8D\	.	8f#\	-mi-	.	.	.	.	.	.	.	.
4G\	4b/)	4g\	.	.	4g/	.	4b\	.	4G\	-ctus	4g\	-nus	4b\	-nus	4g\	4b\	4gg\	.	4bb\	.
*	*v	*v	*	*	*	*	*	*	*	*	*	*	*	*	*	*	*	*	*	*
=5	=5	=5	=5	=5	=5	=5	=5	=5	=5	=5	=5	=5	=5	=5	=5	=5	=5	=5	=5
!	!LO:TX:a:i:t=Solo	!	!	!	!	!	!	!LO:TX:a:t=21	!	!LO:TX:a:t=21	!	!	!	!	!LO:TX:a:t=1	!LO:TX:a:i:t=Solo	!	!LO:TX:a:i:t=Solo	!
4r	8e/L	Do-	.	4r	.	4r	.	0.r	.	0.r	.	(8e/L	Do-	2.r	2.r	4cc\	.	4aa\	.
.	8g/J	.	.	.	.	.	.	.	.	.	.	8a/J)	.	.	.	.	.	.	.
4c\	8f#/L	-mi-	.	4r	.	4r	.	.	.	.	.	8f#/L	-mi-	.	.	4a\	.	4ff#\	.
.	8d/J	.	.	.	.	.	.	.	.	.	.	8d/J	.	.	.	.	.	.	.
4B\	8g/L	-nus	.	8d/L	.	8g/L	.	.	.	.	.	8g\L	-nus	.	.	4b\	.	4gg\	.
.	8b/J	.	.	8g/J	.	8b/J	.	.	.	.	.	8b\J	.	.	.	.	.	.	.
!LO:LB:g=original	!LO:LB:g=original	!	!	!	!	!	!	!	!	!	!	!	!	!	!	!	!	!	!
=6	=6	=6	=6	=6	=6	=6	=6	=6	=6	=6	=6	=6	=6	=6	=6	=6	=6	=6	=6
!	!	!	!	!	!	!	!	!	!	!	!	!	!	!LO:TX:a:t=1	!	!LO:TX:a:t=1	!	!LO:TX:a:t=1	!
4A\	8dd/L	De-	.	(4g/	.	(8dd\L	.	.	.	.	.	(8dd\L	De-	4r	4r	2.r	.	2.r	.
.	8cc/	.	.	.	.	8cc\)	.	.	.	.	.	8cc\J)	.	.	.	.	.	.	.
4d\	8a/	.	.	4f#/)	.	(8a\	.	.	.	.	.	(8a\L	.	4d/	4a\	.	.	.	.
.	8cc/J	.	.	.	.	8cc\J)	.	.	.	.	.	8cc\J)	.	.	.	.	.	.	.
4G\	4b/	-us	.	4g/	.	4b\	.	.	.	.	.	4b\	-us	4g\	4b\	.	.	.	.
!	!	!	!	!	!	!	!	!	!	!	!	!LO:LB:g=original	!	!	!	!	!	!	!
=7	=7	=7	=7	=7	=7	=7	=7	=7	=7	=7	=7	=7	=7	=7	=7	=7	=7	=7	=7
!	!	!	!	!	!	!	!	!	!	!	!	!	!	!LO:TX:a:t=1	!LO:TX:a:t=1	!	!	!	!
4r	8e/L	Sa-	.	4r	.	4r	.	.	.	.	.	8e/L	Sa-	2.r	2.r	4cc|\	.	4aa\	.
.	8a/J	.	.	.	.	.	.	.	.	.	.	8a/J	.	.	.	.	.	.	.
4c\	16g/LL	.	.	4r	.	4r	.	.	.	.	.	(16g/LL	.	.	.	(4cc|\	.	4ff#\	.
.	16f#/	.	.	.	.	.	.	.	.	.	.	16f#/	.	.	.	.	.	.	.
.	16e/	.	.	.	.	.	.	.	.	.	.	16e/)	.	.	.	.	.	.	.
.	16d/JJ	.	.	.	.	.	.	.	.	.	.	16d/JJ	.	.	.	.	.	.	.
4B\	8g/L	.	.	(8d/L	.	(8g/L	.	.	.	.	.	(8g\L	.	.	.	4b\)	.	4gg\	.
.	8b/J	.	.	8g/J)	.	8b/J)	.	.	.	.	.	8b\J)	.	.	.	.	.	.	.
!	!	!	!	!	!	!LO:LB:g=original	!	!	!	!	!	!	!	!	!	!LO:LB:g=original	!	!	!
=8	=8	=8	=8	=8	=8	=8	=8	=8	=8	=8	=8	=8	=8	=8	=8	=8	=8	=8	=8
!	!	!	!	!	!	!	!	!	!	!	!	!	!	!	!	!LO:TX:a:t=1	!	!LO:TX:a:t=1	!
4A\	8dd/L	-ba-	.	4g/	.	8dd\L	.	.	.	.	.	8ee\L	-ba-	4r	4r	2.r	.	2.r	.
.	8cc/	.	.	.	.	8cc\	.	.	.	.	.	8cc\J	.	.	.	.	.	.	.
4D/	8a/	.	.	4f#/	.	8a\	.	.	.	.	.	8a\L	.	4d/	4a\	.	.	.	.
.	8cc/J	.	.	.	.	8cc\J	.	.	.	.	.	8cc\J	.	.	.	.	.	.	.
4G\	4b/	-oth	.	8r	.	4b\	.	.	.	.	.	4b\	-oth	4g\	4b\	.	.	.	.
.	.	.	.	8g/	.	.	.	.	.	.	.	.	.	.	.	.	.	.	.
!	!	!	!	!LO:LB:g=original	!	!	!	!	!	!	!	!	!	!	!	!	!	!	!
=9	=9	=9	=9	=9	=9	=9	=9	=9	=9	=9	=9	=9	=9	=9	=9	=9	=9	=9	=9
!	!	!	!	!	!	!	!	!	!	!	!	!LO:TX:a:t=17	!	!	!	!	!	!	!
!	!	!	!LO:DY:a:t=forte	!	!	!	!LO:DY:b:t=for.	!	!	!	!	!	!	!LO:TX:a:t=4	!LO:TX:a:t=4	!	!LO:DY:a:t=forte	!	!LO:DY:a:t=forte
8.e|\L	8.ee|\L	.	f	8e/L	.	8ee|\L	f	0.r	.	0.r	.	0.r	.	2.r	0.r	8.ee|\L	f	8.eee\L	f
.	.	.	.	8d#X/J	.	8dd#X|\J	.	.	.	.	.	.	.	.	.	.	.	.	.
16d#X|\Jk	16dd#X\Jk	.	.	.	.	.	.	.	.	.	.	.	.	.	.	16dd#X|\Jk	.	16bb\Jk	.
8e\L	8ee|\L	.	.	8e/L	.	8ee|\L	.	.	.	.	.	.	.	.	.	8ee|\L	.	8eee\L	.
!	!	!	!	!LO:SIC:v:s=8dn/	!	!	!	!	!	!	!	!	!	!	!	!	!	!	!
8d\	8dd|\	.	.	8d#/	.	8ddn|\	.	.	.	.	.	.	.	.	.	8ddn|\	.	8dddn\	.
8c\	8cc|\	.	.	8c/	.	8cc|\	.	.	.	.	.	.	.	.	.	8cc|\	.	8ccc\	.
8B\J	8b|\J	.	.	8B/J	.	8b|\J	.	.	.	.	.	.	.	.	.	8b|\J	.	8bb\J	.
!	!	!	!	!	!	!	!	!	!	!	!	!	!	!	!	!	!	!LO:LB:g=original	!
=10	=10	=10	=10	=10	=10	=10	=10	=10	=10	=10	=10	=10	=10	=10	=10	=10	=10	=10	=10
!	!	!	!	!LO:TX:t=P:problem=mixed beam	!	!	!	!	!	!	!	!	!	!	!	!	!LO:DY:a:t=Pia	!	!LO:DY:a:t=pia
4A\	4f#/	.	.	8A/L	.	(8cc\L	.	.	.	.	.	.	.	2.r	.	4a/	p	4aa\	p
!	!	!	!	!	!LO:DY:b:t=po	!	!	!	!	!	!	!	!	!	!	!	!	!	!
.	.	.	.	8ee\	p	8ccc\)	.	.	.	.	.	.	.	.	.	.	.	.	.
4r	4r	.	.	8ee\	.	(8ccc\	.	.	.	.	.	.	.	.	.	4r	.	4r	.
.	.	.	.	8dd\	.	8bb\)	.	.	.	.	.	.	.	.	.	.	.	.	.
4r	4r	.	.	8dd\	.	(8bb\	.	.	.	.	.	.	.	.	.	4r	.	4r	.
.	.	.	.	8cc\J	.	8aa\J)	.	.	.	.	.	.	.	.	.	.	.	.	.
=11	=11	=11	=11	=11	=11	=11	=11	=11	=11	=11	=11	=11	=11	=11	=11	=11	=11	=11	=11
!	!	!	!LO:DY:a:t=forte	!	!	!	!	!	!	!	!	!	!	!	!	!	!LO:DY:a:t=forte	!	!LO:DY:a:t=forte
8.d|\L	8.dd|\L	.	f	8dn/L	.	8dd|\L	.	.	.	.	.	.	.	2.r	.	8.dd|\L	f	8.ddd\L	f
.	.	.	.	8c#X/J	.	8cc#X|\J	.	.	.	.	.	.	.	.	.	.	.	.	.
16c#|\Jk	16cc#|\Jk	.	.	.	.	.	.	.	.	.	.	.	.	.	.	16cc#X|\Jk	.	16ccc#X\Jk	.
8d|\L	8dd|\L	.	.	8d/L	.	8dd|\L	.	.	.	.	.	.	.	.	.	8dd|\L	.	8ddd\L	.
8c#X|\	8cc#X|\	.	.	8cn/	.	8ccn|\	.	.	.	.	.	.	.	.	.	8ccn|\	.	8cccn\	.
8B|\	8b|\	.	.	8B/	.	8b|\	.	.	.	.	.	.	.	.	.	8b|\	.	8bb\	.
8A|\J	8a|\J	.	.	8A/J	.	8a|\J	.	.	.	.	.	.	.	.	.	8a|\J	.	8aa\J	.
=12	=12	=12	=12	=12	=12	=12	=12	=12	=12	=12	=12	=12	=12	=12	=12	=12	=12	=12	=12
!	!	!	!	!LO:TX:t=P:problem=mixed beam	!	!	!	!	!	!	!	!	!	!	!	!	!	!	!
!	!	!	!	!	!	!LO:TX:t=P:problem=mixed beam	!	!	!	!	!	!	!	!	!	!	!	!	!
4G\	4g/	.	.	8G/L	.	(8g/L	.	.	.	.	.	.	.	2.r	.	4b\	.	4gg\	.
.	.	.	.	8dd\	.	8bb\)	.	.	.	.	.	.	.	.	.	.	.	.	.
!	!	!	!	!	!LO:DY:b:t=po	!LO:TX:b:i:t=dolce	!	!	!	!	!	!	!	!	!	!	!	!	!
4r	4r	.	.	8dd\	p	(8bb\	.	.	.	.	.	.	.	.	.	4r	.	4r	.
.	.	.	.	8cc\	.	8aa\)	.	.	.	.	.	.	.	.	.	.	.	.	.
4r	4r	.	.	8cc\	.	(8aa\	.	.	.	.	.	.	.	.	.	4r	.	4r	.
.	.	.	.	8b\J	.	8gg\J)	.	.	.	.	.	.	.	.	.	.	.	.	.
!LO:LB:g=original	!LO:LB:g=original	!	!	!	!	!	!	!	!	!	!	!	!	!	!	!	!	!	!
=13	=13	=13	=13	=13	=13	=13	=13	=13	=13	=13	=13	=13	=13	=13	=13	=13	=13	=13	=13
*	*	*	*	*	*	*	*	*	*	*	*	*	*	*	*2\right	*2\right	*	*2\right	*
!	!	!	!	!LO:TX:t=P:problem=mixed beam	!	!	!	!	!	!	!	!	!	!	!	!	!	!	!
8r	2a/ 2cc	.	.	8cc\L	.	(8aa\L	.	0.r	.	0.r	.	0.r	.	2.d/	2.a\	2.ff#X\	.	2.aa\	.
8D/L	.	.	.	8a/	.	8cc\)	.	.	.	.	.	.	.	.	.	.	.	.	.
8E/	.	.	.	8a/	.	8cc|\	.	.	.	.	.	.	.	.	.	.	.	.	.
8D/	.	.	.	8a/	.	8cc|\	.	.	.	.	.	.	.	.	.	.	.	.	.
8E/	4a/ 4cc	.	.	8a/	.	8cc|\	.	.	.	.	.	.	.	.	.	.	.	.	.
8F#/J	.	.	.	8a/J	.	8cc|\J	.	.	.	.	.	.	.	.	.	.	.	.	.
=14	=14	=14	=14	=14	=14	=14	=14	=14	=14	=14	=14	=14	=14	=14	=14	=14	=14	=14	=14
4G\	4b/ 4dd	.	.	8g/L	.	(8b\L	.	.	.	.	.	.	.	2.g\	2.b\	4gg\	.	4bb\	.
.	.	.	.	8b/	.	8dd\)	.	.	.	.	.	.	.	.	.	.	.	.	.
4r	4r	.	.	8b/	.	(8gg\	.	.	.	.	.	.	.	.	.	4r	.	4r	.
.	.	.	.	8a/	.	8ff#\)	.	.	.	.	.	.	.	.	.	.	.	.	.
4r	4r	.	.	8b/	.	(8gg\	.	.	.	.	.	.	.	.	.	4r	.	4r	.
.	.	.	.	8dd/J	.	8bb\J)	.	.	.	.	.	.	.	.	.	.	.	.	.
=15	=15	=15	=15	=15	=15	=15	=15	=15	=15	=15	=15	=15	=15	=15	=15	=15	=15	=15	=15
!	!	!	!	!LO:TX:t=P:problem=mixed beam	!	!	!	!	!	!	!	!	!	!	!	!	!	!	!
8r	2a/ 2cc	.	.	8cc\L	.	(8aa\L	.	.	.	.	.	.	.	2.d/	2.a\	2.ff#X\	.	2.aa\	.
8D/L	.	.	.	8a/	.	8cc\)	.	.	.	.	.	.	.	.	.	.	.	.	.
8E/	.	.	.	8a/	.	8cc\	.	.	.	.	.	.	.	.	.	.	.	.	.
8D/	.	.	.	8a/	.	8cc|\	.	.	.	.	.	.	.	.	.	.	.	.	.
8E/	4a/ 4cc	.	.	8a/	.	8cc|\	.	.	.	.	.	.	.	.	.	.	.	.	.
8F#/J	.	.	.	8a/J	.	8cc|\J	.	.	.	.	.	.	.	.	.	.	.	.	.
!	!	!	!	!LO:LB:g=original	!	!LO:LB:g=original	!	!	!	!	!	!	!	!	!	!	!	!	!
=16	=16	=16	=16	=16	=16	=16	=16	=16	=16	=16	=16	=16	=16	=16	=16	=16	=16	=16	=16
4G\	4b/ 4dd	.	.	8g\L	.	(8b\L	.	.	.	.	.	.	.	2.g\	2.b\	4gg\	.	4bb\	.
.	.	.	.	8a\	.	8cc\	.	.	.	.	.	.	.	.	.	.	.	.	.
4r	4r	.	.	8b\	.	8dd\)	.	.	.	.	.	.	.	.	.	4r	.	4r	.
.	.	.	.	8cc\	.	8ee\	.	.	.	.	.	.	.	.	.	.	.	.	.
4r	4r	.	.	8b\ 8dd	.	(8dd\	.	.	.	.	.	.	.	.	.	4r	.	4r	.
.	.	.	.	8ee\J	.	8gg\J)	.	.	.	.	.	.	.	.	.	.	.	.	.
!	!	!	!	!	!	!	!	!	!	!	!	!	!	!	!	!LO:LB:g=original	!	!	!
=17	=17	=17	=17	=17	=17	=17	=17	=17	=17	=17	=17	=17	=17	=17	=17	=17	=17	=17	=17
!	!	!	!	!	!	!	!	!	!	!	!	!	!	!	!	!LO:TX:a:t=6	!	!LO:TX:a:t=6	!
4D|>/	2.ryy	.	.	8dd\L	.	(8ff#\L	.	0.r	.	0.r	.	0.r	.	2.G/	2.g\	0.r	.	0.r	.
.	.	.	.	8cc\	.	8ee\	.	.	.	.	.	.	.	.	.	.	.	.	.
4r	.	.	.	8b\	.	8dd\)	.	.	.	.	.	.	.	.	.	.	.	.	.
.	.	.	.	8cc\	.	(8ee\	.	.	.	.	.	.	.	.	.	.	.	.	.
4r	.	.	.	8b\	.	8dd\	.	.	.	.	.	.	.	.	.	.	.	.	.
.	.	.	.	8a\J	.	8cc\J)	.	.	.	.	.	.	.	.	.	.	.	.	.
!	!	!	!	!	!	!	!	!	!	!	!	!	!	!	!LO:LB:g=original	!	!	!	!
=18	=18	=18	=18	=18	=18	=18	=18	=18	=18	=18	=18	=18	=18	=18	=18	=18	=18	=18	=18
4G|>\	2.ryy	.	.	8g\L	.	(8b\L	.	.	.	.	.	.	.	2.G/	2.g\	.	.	.	.
.	.	.	.	8a\	.	8cc\)	.	.	.	.	.	.	.	.	.	.	.	.	.
4r	.	.	.	8b\	.	(8dd\	.	.	.	.	.	.	.	.	.	.	.	.	.
.	.	.	.	8cc\	.	8ee\)	.	.	.	.	.	.	.	.	.	.	.	.	.
4r	.	.	.	8b\	.	(8dd\	.	.	.	.	.	.	.	.	.	.	.	.	.
.	.	.	.	8ee\J	.	8gg\J)	.	.	.	.	.	.	.	.	.	.	.	.	.
=19	=19	=19	=19	=19	=19	=19	=19	=19	=19	=19	=19	=19	=19	=19	=19	=19	=19	=19	=19
4D|>/	2.ryy	.	.	8dd\L	.	8ff#\L	.	.	.	.	.	.	.	2.G/	2.g\	.	.	.	.
.	.	.	.	8cc\	.	(8ee\	.	.	.	.	.	.	.	.	.	.	.	.	.
4r	.	.	.	8b\	.	8dd\)	.	.	.	.	.	.	.	.	.	.	.	.	.
.	.	.	.	8cc\	.	(8ee\	.	.	.	.	.	.	.	.	.	.	.	.	.
4r	.	.	.	8b\	.	(8dd\)	.	.	.	.	.	.	.	.	.	.	.	.	.
.	.	.	.	8a\J	.	8cc\J)	.	.	.	.	.	.	.	.	.	.	.	.	.
=20	=20	=20	=20	=20	=20	=20	=20	=20	=20	=20	=20	=20	=20	=20	=20	=20	=20	=20	=20
4G|>\	2.ryy	.	.	8g\L	.	8b\L	.	.	.	.	.	.	.	2G/	2g\	.	.	.	.
.	.	.	.	8a\	.	8cc\	.	.	.	.	.	.	.	.	.	.	.	.	.
4r	.	.	.	8b\	.	8dd\	.	.	.	.	.	.	.	.	.	.	.	.	.
.	.	.	.	8cc\	.	8ee\	.	.	.	.	.	.	.	.	.	.	.	.	.
4r	.	.	.	8dd\	.	8ff#\	.	.	.	.	.	.	.	4r	4g\	.	.	.	.
.	.	.	.	8ee\J	.	8gg\J	.	.	.	.	.	.	.	.	.	.	.	.	.
=21	=21	=21	=21	=21	=21	=21	=21	=21	=21	=21	=21	=21	=21	=21	=21	=21	=21	=21	=21
!	!	!	!	!	!	!	!	!	!	!	!	!	!	!LO:TX:a:t=5	!LO:TX:a:t=5	!	!	!	!
4D|>/	2.ryy	.	.	8ff#\L	.	8aa\L	.	0.r	.	0.r	.	0.r	.	2.r	0.r	1.r	.	1.r	.
.	.	.	.	8ee\	.	8gg\	.	.	.	.	.	.	.	.	.	.	.	.	.
4r	.	.	.	8dd\	.	8ff#\	.	.	.	.	.	.	.	.	.	.	.	.	.
.	.	.	.	8ee\	.	8gg\	.	.	.	.	.	.	.	.	.	.	.	.	.
4r	.	.	.	8ff#\	.	8aa\	.	.	.	.	.	.	.	.	.	.	.	.	.
.	.	.	.	8gg\J	.	8bb\J	.	.	.	.	.	.	.	.	.	.	.	.	.
=22	=22	=22	=22	=22	=22	=22	=22	=22	=22	=22	=22	=22	=22	=22	=22	=22	=22	=22	=22
4D|>/	2.ryy	.	.	8aa\L	.	8ccc\L	.	.	.	.	.	.	.	2.r	.	.	.	.	.
.	.	.	.	8gg\	.	8bb\	.	.	.	.	.	.	.	.	.	.	.	.	.
4r	.	.	.	8ff#\	.	8aa\	.	.	.	.	.	.	.	.	.	.	.	.	.
.	.	.	.	8ee\	.	8gg\	.	.	.	.	.	.	.	.	.	.	.	.	.
4r	.	.	.	8dd\	.	8ff#\	.	.	.	.	.	.	.	.	.	.	.	.	.
.	.	.	.	8cc\J	.	8ee\J	.	.	.	.	.	.	.	.	.	.	.	.	.
!LO:PB:g=original	!LO:PB:g=original	!	!	!	!	!	!	!	!	!	!	!	!	!	!	!	!	!	!
=23	=23	=23	=23	=23	=23	=23	=23	=23	=23	=23	=23	=23	=23	=23	=23	=23	=23	=23	=23
4.D\	2.ryy	.	.	8b\L	.	8dd\L	.	.	.	.	.	.	.	2.r	.	(8bb\L	.	(8ddd\L	.
.	.	.	.	8cc\	.	8ee\	.	.	.	.	.	.	.	.	.	8ccc\	.	8eee\	.
.	.	.	.	8b\	.	8dd\	.	.	.	.	.	.	.	.	.	8bb\)	.	8ddd\)	.
8D#X\	.	.	.	8a\J	.	8cc\J	.	.	.	.	.	.	.	.	.	8aa\J	.	8ccc\J	.
4E\	.	.	.	4g/	.	4b\	.	.	.	.	.	.	.	.	.	4gg\	.	4bb\	.
!	!	!	!	!LO:LB:g=original	!	!LO:LB:g=original	!	!	!	!	!	!	!	!	!	!	!	!	!
=24	=24	=24	=24	=24	=24	=24	=24	=24	=24	=24	=24	=24	=24	=24	=24	=24	=24	=24	=24
4C/	2.ryy	.	.	8a\L	.	(8cc\L	.	.	.	.	.	.	.	2.r	.	(8aa\L	.	(8ccc\L	.
.	.	.	.	8cc\	.	8ee\	.	.	.	.	.	.	.	.	.	8ccc\)	.	8eee\)	.
4r	.	.	.	8cc\	.	8ee\)	.	.	.	.	.	.	.	.	.	(8ccc\	.	(8eee\	.
.	.	.	.	8b\	.	(8dd\	.	.	.	.	.	.	.	.	.	8bb\)	.	8ddd\)	.
8C/L	.	.	.	8a\	.	8cc\	.	.	.	.	.	.	.	.	.	(8aa\	.	(8ccc\	.
8C#/J	.	.	.	8g\J	.	8b\J)	.	.	.	.	.	.	.	.	.	8gg\J)	.	8bb\J)	.
=25	=25	=25	=25	=25	=25	=25	=25	=25	=25	=25	=25	=25	=25	=25	=25	=25	=25	=25	=25
!LO:TX:t=P:problem=mixed beam	!	!	!	!	!	!	!	!	!	!	!	!	!	!	!	!	!	!	!
8D|>/L	2.ryy	.	.	8g/L	.	(8g/L	.	2.r	.	2.r	.	2.r	.	2.r	2.r	(8gg\L	.	(8bb\L	.
8d|>\J	.	.	.	8f#/J	.	8a/J)	.	.	.	.	.	.	.	.	.	8ff#\J)	.	8aa\J)	.
8d|>\L	.	.	.	4f#/	.	4a|/	.	.	.	.	.	.	.	.	.	4ff#\	.	4aa|\	.
8c|>\	.	.	.	.	.	.	.	.	.	.	.	.	.	.	.	.	.	.	.
8B|>\	.	.	.	4r	.	4r	.	.	.	.	.	.	.	.	.	4r	.	4r	.
8A|>\J	.	.	.	.	.	.	.	.	.	.	.	.	.	.	.	.	.	.	.
!	!	!	!	!	!	!	!	!	!	!	!	!	!	!	!	!	!	!LO:LB:g=original	!
=26	=26	=26	=26	=26	=26	=26	=26	=26	=26	=26	=26	=26	=26	=26	=26	=26	=26	=26	=26
!	!	!	!LO:DY:a:t=forte	!	!	!	!	!	!	!	!	!	!	!	!	!	!LO:DY:a:t=for.	!	!LO:DY:a:t=piano
2.G\	4b/ 4dd	San-	f	4b/	.	4dd|\	.	4G\	San-	4b\	San-	4dd\	San-	4g\	4b\	4bb\	f	4ddd\	p
.	4b/ 4dd	-ctus	.	4b/	.	4dd|\	.	4G\	-ctus.	4b\	-ctus	4dd\	-ctus	4g\	4b\	4bb\	.	4ddd\	.
.	8a/L 8cc	.	.	8a/L	.	(8cc\L	.	4r	.	4r	.	4r	.	4ryy	4r	8aa\L	.	(8ccc\L	.
.	8g/J 8b	.	.	8g/J	.	8b\J)	.	.	.	.	.	.	.	.	.	8gg\J	.	8bb\J)	.
!	!	!	!	!	!	!	!	!LO:LB:g=original	!	!LO:LB:g=original	!	!	!	!	!	!	!	!	!
=27	=27	=27	=27	=27	=27	=27	=27	=27	=27	=27	=27	=27	=27	=27	=27	=27	=27	=27	=27
!	!	!	!LO:DY:a:t=Piano	!	!	!	!	!	!	!	!	!	!	!	!	!	!LO:DY:a:t=Piano	!	!LO:DY:a:t=piano
4d\	4g/ 4b	San-	p	4g/	.	4b|/	.	4D\	San-	4g\	San-	(4b\	San-	4G/	4g\	4dd\	p	(4bb\	p
4d#X\	4f#/ 4a	-ctus	.	4f#/	.	4a|/	.	4D#X\	.	4f#\	.	4a\	.	4d/	4a\	4cc\	.	4aa\)	.
4e\	4g/	.	.	4g/	.	4g|/	.	4E\	-ctus	4g\	-ctus	4g\)	-ctus	4g\	4b\	4b\	.	4gg\	.
=28	=28	=28	=28	=28	=28	=28	=28	=28	=28	=28	=28	=28	=28	=28	=28	=28	=28	=28	=28
!	!	!	!LO:DY:a:t=forte	!	!	!	!	!	!	!	!	!	!	!	!	!	!LO:DY:a:t=for	!	!LO:DY:a:t=for
2c\	4ee/	San-	f	4g/	.	4ee|\	.	4C/	San-	4cc\	San-	4ee\	San-	4G/	4g\	4cc\	f	4eee\	f
.	4ee/	-ctus	.	4g/	.	4ee|\	.	4C/	-ctus	4cc\	-ctus	4ee\	-ctus	4G/	4g\	4cc\	.	4eee\	.
4B\	16dd/LL	.	.	4g/	.	4r	.	4r	.	4r	.	4r	.	4r	4r	4r	.	4r	.
.	16ee/	.	.	.	.	.	.	.	.	.	.	.	.	.	.	.	.	.	.
.	16ff#/	.	.	.	.	.	.	.	.	.	.	.	.	.	.	.	.	.	.
.	16gg/JJ	.	.	.	.	.	.	.	.	.	.	.	.	.	.	.	.	.	.
=29	=29	=29	=29	=29	=29	=29	=29	=29	=29	=29	=29	=29	=29	=29	=29	=29	=29	=29	=29
*	*^	*	*	*	*	*	*	*	*	*	*	*	*	*	*	*	*	*	*
4G\	8.dd/L	8g\L	.	.	4.g/	.	(8dd\L	.	4.G\	San-	4.g\	Do-	(8dd\L	Do-	4r	4r	8ff#\L	.	(8ddd\L	.
.	.	8g\Jyy	.	.	.	.	8cc\J)	.	.	.	.	.	8cc\J)	.	.	.	8aa\J	.	8ccc\J)	.
.	(16cc/Jk	.	.	.	.	.	.	.	.	.	.	.	.	.	.	.	.	.	.	.
4D/	4cc/)	8f#\	.	.	.	.	4cc|\	.	.	.	.	.	4cc\	-mi-	4d/	4a\	4aa\	.	4ccc\	.
.	.	4.f#\yy	.	.	8f#/	.	.	.	8D\	.	8f#\	-mi-	.	.	.	.	.	.	.	.
4G\	4g/ 4b	.	.	.	4g/	.	4b|\	.	4G\	-ctus	4g\	-nus	4b\	-nus	4g\	4b\	4gg\	.	4bb\	.
*	*v	*v	*	*	*	*	*	*	*	*	*	*	*	*	*	*	*	*	*	*
!LO:LB:g=original	!LO:LB:g=original	!	!	!	!	!	!	!	!	!	!	!	!	!	!	!	!	!	!
=30	=30	=30	=30	=30	=30	=30	=30	=30	=30	=30	=30	=30	=30	=30	=30	=30	=30	=30	=30
!	!	!	!LO:DY:a:t=PIano	!	!	!	!	!LO:TX:a:t=4	!	!LO:TX:a:t=4	!	!	!	!LO:TX:a:t=1	!	!	!LO:DY:a:t=Pia	!	!LO:DY:a:t=pia
4r	8e/L	Do-	p	4r	.	4r	.	0.r	.	0.r	.	(8e/L	Do-	2.r	2.r	4cc\	p	4aa\	p
.	8a/J	.	.	.	.	.	.	.	.	.	.	8a/J)	.	.	.	.	.	.	.
4c\	8f#/L	-mi-	.	4r	.	4r	.	.	.	.	.	(8f#/L	-mi-	.	.	4cc\	.	4ff#\	.
.	8d/J	.	.	.	.	.	.	.	.	.	.	8d/J)	.	.	.	.	.	.	.
4B\	8g/L	-nus	.	8d/L	.	8g/L	.	.	.	.	.	(8g\L	-nus	.	.	4b\	.	4gg\	.
.	8b/J	.	.	[8g/J	.	8b/J	.	.	.	.	.	8b\J)	.	.	.	.	.	.	.
!	!	!	!	!	!	!	!	!	!	!	!	!LO:LB:g=original	!	!	!	!LO:LB:g=original	!	!	!
=31	=31	=31	=31	=31	=31	=31	=31	=31	=31	=31	=31	=31	=31	=31	=31	=31	=31	=31	=31
!	!	!	!	!	!	!	!	!	!	!	!	!	!	!	!LO:TX:t=P:problem=takty 31-32 zapisane jako repetycja	!	!	!LO:TX:a:t=1	!
!	!	!	!	!	!	!	!	!	!	!	!	!	!	!	!	!LO:TX:a:t=1	!	!	!
4A\	8dd/L	De-	.	4g/]	.	(8dd\L	.	.	.	.	.	(8dd\L	De-	4r	4r	2.r	.	2.r	.
.	8cc/	.	.	.	.	8cc\)	.	.	.	.	.	8cc\J)	.	.	.	.	.	.	.
4d\	8a/	.	.	4f#/	.	(8a\	.	.	.	.	.	(8a\L	.	4d/	4a\	.	.	.	.
.	8cc/J	.	.	.	.	8cc\J)	.	.	.	.	.	8cc\J)	.	.	.	.	.	.	.
4G\	4b/	-us	.	4g/	.	4b|\	.	.	.	.	.	4b\	-us	4g\	4b\	.	.	.	.
=32	=32	=32	=32	=32	=32	=32	=32	=32	=32	=32	=32	=32	=32	=32	=32	=32	=32	=32	=32
!	!	!	!	!	!	!	!	!	!	!	!	!	!	!LO:TX:a:t=1	!	!	!	!	!
4r	8e/L	Sa-	.	4r	.	4r	.	.	.	.	.	8e/L	Do-	2.r	2.r	4cc\	.	4aa\	.
.	8a/J	.	.	.	.	.	.	.	.	.	.	8a/J	.	.	.	.	.	.	.
4c\	16g/LL	.	.	4r	.	4r	.	.	.	.	.	(16g/LL	.	.	.	4cc\	.	4ff#\	.
.	16f#/	.	.	.	.	.	.	.	.	.	.	16f#/	.	.	.	.	.	.	.
.	16e/	.	.	.	.	.	.	.	.	.	.	16e/)	.	.	.	.	.	.	.
.	16d/JJ	.	.	.	.	.	.	.	.	.	.	16d/JJ	.	.	.	.	.	.	.
4B\	8g/L	.	.	8d/L	.	(8g/L	.	.	.	.	.	8g\L	-mi-	.	.	4b\	.	4gg\	.
.	8b/J	.	.	[8g/J	.	8b/J)	.	.	.	.	.	8b\J	-nus	.	.	.	.	.	.
=33	=33	=33	=33	=33	=33	=33	=33	=33	=33	=33	=33	=33	=33	=33	=33	=33	=33	=33	=33
!	!	!	!	!	!	!	!	!	!	!	!	!	!	!	!	!LO:TX:a:t=1	!	!LO:TX:a:t=1	!
4A\	8dd/L	-ba-	.	4g/]	.	(8dd\L	.	.	.	.	.	8ee\L	De-	4r	4r	2.r	.	2.r	.
.	8cc/J	.	.	.	.	8cc\)	.	.	.	.	.	8cc\J	-us	.	.	.	.	.	.
4D/	8a/L	.	.	4f#/	.	8a\	.	.	.	.	.	8a\L	Sa-	4d/	4a\	.	.	.	.
.	8cc/J	.	.	.	.	8cc\J	.	.	.	.	.	8cc\J	-ba-	.	.	.	.	.	.
4G\	4b/	-oth	.	4g/	.	4b\	.	.	.	.	.	4b\	-oth	4g\	4b\	.	.	.	.
=34	=34	=34	=34	=34	=34	=34	=34	=34	=34	=34	=34	=34	=34	=34	=34	=34	=34	=34	=34
!	!	!	!LO:DY:a:t=forte	!	!	!	!	!	!	!	!	!	!	!LO:TX:a:t=3	!LO:TX:a:t=3	!	!	!	!
4B\	4dd\ 4ffX	.	f	4dd\	.	4ffn\	.	8BB/	Do-	8dd\	Do-	8ffn\	Do-	2.r	1.r	4cc\	.	4bb\	.
.	.	.	.	.	.	.	.	8BB/	-mi-	8dd\	-mi-	8ff\	-mi-	.	.	.	.	.	.
4c\	4cc\ 4ee	.	.	4cc\	.	4ee\	.	4C/	-nus	4cc\	-nus	4ee\	-nus	.	.	4cc\	.	4ccc\	.
4r	4r	.	.	4r	.	4r	.	4r	.	4r	.	4r	.	.	.	4r	.	4r	.
!	!	!	!	!LO:LB:g=original	!	!LO:LB:g=original	!	!	!	!	!	!	!	!	!	!	!	!	!
=35	=35	=35	=35	=35	=35	=35	=35	=35	=35	=35	=35	=35	=35	=35	=35	=35	=35	=35	=35
4e\	4g#X/ 4dd	.	.	4dd\	.	4gg#X\	.	4E\	De-	4g#X\	De-	4dd\	De-	2.r	.	4gg#X\	.	4ddd\	.
!	!	!	!	!	!	!	!	!	!	!	!	!	!	!	!	!LO:SIC:v:s=4aa\	!	!	!
4fX\	4a/ 4cc	.	.	4cc\	.	4aa\	.	4Fn\	-us	4a\	-us	4cc\	-us	.	.	4bb\	.	4ccc\	.
4r	4r	.	.	4r	.	4r	.	4r	.	4r	.	4r	.	.	.	4r	.	4r	.
=36	=36	=36	=36	=36	=36	=36	=36	=36	=36	=36	=36	=36	=36	=36	=36	=36	=36	=36	=36
!	!	!	!	!	!	!	!	!LO:TX:a:t=1	!	!LO:TX:a:t=1	!	!LO:TX:a:t=1	!	!	!	!	!	!	!
4c\	2.ryy	.	.	4cc\	.	4ee\	.	2.r	.	2.r	.	2.r	.	2.r	2.r	4ccc\	.	4eee|\	.
4r	.	.	.	8cc\L	.	8ee\L	.	.	.	.	.	.	.	.	.	8ccc\L	.	(8eee\L	.
.	.	.	.	8b\	.	8dd\	.	.	.	.	.	.	.	.	.	8bb\	.	8ddd\)	.
4r	.	.	.	8a\	.	8cc\	.	.	.	.	.	.	.	.	.	8aa\	.	(8ccc\	.
.	.	.	.	8g\J	.	8b\J	.	.	.	.	.	.	.	.	.	8gg\J	.	8bb\J)	.
!LO:LB:g=original	!LO:LB:g=original	!	!	!	!	!	!	!	!	!	!	!	!	!	!	!	!	!LO:LB:g=original	!
=37	=37	=37	=37	=37	=37	=37	=37	=37	=37	=37	=37	=37	=37	=37	=37	=37	=37	=37	=37
!	!	!	!	!	!	!	!	!	!	!	!	!	!	!	!	!	!	!	!LO:DY:a:t=forte
4d\	2.ryy	.	.	4f#/	.	4a/	.	4d\	Sa-	4a\	Sa-	4ff#X\	Sa-	4r	4r	2ff#\	.	2aa\	f
4c\	.	.	.	4a/	.	4ff#\	.	4c\	-ba-	4a\	-ba-	(4ff#\	-ba-	4d/	4a\	.	.	.	.
4B\	.	.	.	4b/	.	4gg\	.	4B\	-oth	4b\	-oth	4gg\)	-oth	4g\	4b\	4gg\	.	4bb\	.
=38	=38	=38	=38	=38	=38	=38	=38	=38	=38	=38	=38	=38	=38	=38	=38	=38	=38	=38	=38
4c\	2.ryy	.	.	16dd\LL	.	16ff#\LL	.	4c\	Sa-	16dd\LL	Sa-	(16ff#\LL	Sa-	4a\	4cc\	4r	.	4r	.
.	.	.	.	16cc\	.	16ee\	.	.	.	(16cc\	.	16ee\	.	.	.	.	.	.	.
.	.	.	.	16b\	.	16dd\	.	.	.	16b\	.	16dd\	.	.	.	.	.	.	.
.	.	.	.	16a\JJ	.	16cc\JJ	.	.	.	16a\JJ)	.	16cc\JJ	.	.	.	.	.	.	.
4d\	.	.	.	4g/	.	4b/	.	4d\	-ba-	4g\	.	4b\)	.	4g\	4b\	4gg\	.	4bb\	.
4D/	.	.	.	4f#/	.	4a/	.	4D/	-oth	4f#\	-ba-	4a\	-ba-	4d\	4a\	4ff#\	.	4aa\	.
!	!	!	!	!	!	!	!	!LO:LB:g=original	!	!LO:LB:g=original	!	!LO:LB:g=original	!	!	!	!	!	!	!
=39	=39	=39	=39	=39	=39	=39	=39	=39	=39	=39	=39	=39	=39	=39	=39	=39	=39	=39	=39
4G\	2.ryy	.	.	4B/ 4g	.	4g/	.	4G\	oth	4d/	-oth	4g\	-oth	4B/	4g\	4gg\	.	4gg\	.
4GG/	.	.	.	4r	.	8r	.	4r	.	4r	.	4r	.	4r	4r	4r	.	4r	.
.	.	.	.	.	.	8b\	.	.	.	.	.	.	.	.	.	.	.	.	.
4D/	.	.	.	4a/	.	16dd\LL	.	8D\	Sa-	8f#/	Sa-	8a\	Sa-	8r	8r	4aa\	.	4ccc\	.
.	.	.	.	.	.	16cc\	.	.	.	.	.	.	.	.	.	.	.	.	.
.	.	.	.	.	.	16a\	.	8D\	-ba-	8f#/	-ba-	8a\	-ba-	8d/	8a\	.	.	.	.
.	.	.	.	.	.	16f#\JJ	.	.	.	.	.	.	.	.	.	.	.	.	.
!	!	!	!	!	!	!	!	!	!	!	!	!	!	!	!	!LO:LB:g=original	!	!	!
=40	=40	=40	=40	=40	=40	=40	=40	=40	=40	=40	=40	=40	=40	=40	=40	=40	=40	=40	=40
4G\	2.ryy	.	.	4g/	.	8g/L	.	4G\	-oth	4g\	-oth	4b\	-oth	8g\	8b\	4gg\	.	4ccc\	.
.	.	.	.	.	.	8b/	.	.	.	.	.	.	.	8r	8r	.	.	.	.
!	!	!	!	!	!	!	!	!	!	!	!	!	!	!	!LO:LB:g=original	!	!	!	!
=-	=-	=-	=-	=-	=-	=-	=-	=-	=-	=-	=-	=-	=-	=-	=-	=-	=-	=-	=-
4r	.	.	.	4r	.	8d/	.	4r	.	4r	.	4r	.	4r	4r	4r	.	4r	.
.	.	.	.	.	.	8b/J	.	.	.	.	.	.	.	.	.	.	.	.	.
!LO:TX:a:t=40	!	!	!	!	!	!	!	!	!	!	!	!	!	!	!	!	!	!	!
4D/	.	.	.	4a/	.	16dd\LL	.	8D\	Sa-	8f#/	Sa-	8a\	Sa-	8r	8r	4aa\	.	4ddd\	.
.	.	.	.	.	.	16cc\	.	.	.	.	.	.	.	.	.	.	.	.	.
.	.	.	.	.	.	16a\	.	8D\	-ba-	8f#/	-ba-	8a\	-ba-	8d/	8a\	.	.	.	.
.	.	.	.	.	.	16f#\JJ	.	.	.	.	.	.	.	.	.	.	.	.	.
=41	=41	=41	=41	=41	=41	=41	=41	=41	=41	=41	=41	=41	=41	=41	=41	=41	=41	=41	=41
!	!	!	!LO:DY:a:t=Pia	!	!	!	!	!	!	!	!	!	!	!	!	!	!	!	!
4G\	8d/L 8g 8b	.	p	4b/	.	4g/	.	4G\	-oth.	4g/	-oth	4b\	-oth	4G/	4g\	2gg\	.	8bb\L	.
!	!LO:TX:a:i:t=Solo	!	!	!	!	!	!	!	!	!	!	!	!	!	!	!	!	!	!
.	8dd/J	.	.	.	.	.	.	.	.	.	.	.	.	.	.	.	.	8ddd\J	.
4r	8gg\L	.	.	4r	.	4r	.	4r	.	4r	.	4r	.	4G/	4r	.	.	2ddd\	.
.	8bb\J	.	.	.	.	.	.	.	.	.	.	.	.	.	.	.	.	.	.
4D\ 4A	16ddd\LL	.	.	4a/	.	4cc/	.	4r	.	4r	.	4r	.	4r	4r	4ff#\	.	.	.
.	16ccc\	.	.	.	.	.	.	.	.	.	.	.	.	.	.	.	.	.	.
.	16bb\	.	.	.	.	.	.	.	.	.	.	.	.	.	.	.	.	.	.
.	16aa\JJ	.	.	.	.	.	.	.	.	.	.	.	.	.	.	.	.	.	.
=42	=42	=42	=42	=42	=42	=42	=42	=42	=42	=42	=42	=42	=42	=42	=42	=42	=42	=42	=42
!	!	!	!	!	!	!	!	!LO:TX:a:t=7	!	!LO:TX:a:t=1	!	!LO:TX:a:t=1	!	!LO:TX:a:t=4	!LO:TX:a:t=4	!	!	!	!
4G\ 4B	8gg\L	.	.	4g/	.	4b/	.	0.r	.	2.r	.	2.r	.	2.r	0.r	2gg\	.	(2ddd\	.
.	8bb\	.	.	.	.	.	.	.	.	.	.	.	.	.	.	.	.	.	.
4r	8dd\	.	.	4r	.	4r	.	.	.	.	.	.	.	.	.	.	.	.	.
.	8bb\J	.	.	.	.	.	.	.	.	.	.	.	.	.	.	.	.	.	.
4D\ 4A	16ddd\LL	.	.	4a/	.	4cc\	.	.	.	.	.	.	.	.	.	4cc\	.	4ff#\)	.
.	16ccc\	.	.	.	.	.	.	.	.	.	.	.	.	.	.	.	.	.	.
.	16aa\	.	.	.	.	.	.	.	.	.	.	.	.	.	.	.	.	.	.
.	16ff#\JJ	.	.	.	.	.	.	.	.	.	.	.	.	.	.	.	.	.	.
=43	=43	=43	=43	=43	=43	=43	=43	=43	=43	=43	=43	=43	=43	=43	=43	=43	=43	=43	=43
!LO:TX:t=P:problem=mixed beam	!	!	!	!	!	!	!	!	!	!	!	!	!	!	!	!	!	!	!
8GG/L	4gg\	.	.	4g/	.	4b/	.	.	.	4r	.	4r	.	2.r	.	4b\	.	4gg\	.
8G\	.	.	.	.	.	.	.	.	.	.	.	.	.	.	.	.	.	.	.
!	!	!	!	!	!	!	!LO:DY:b:t=piano	!	!	!	!	!	!	!	!	!	!	!	!
8GG/	4r	.	.	4r	.	4r	p	.	.	4r	.	4r	.	.	.	4r	.	4r	.
8G\	.	.	.	.	.	.	.	.	.	.	.	.	.	.	.	.	.	.	.
!	!	!	!	!	!LO:DY:b:t=piano	!	!	!	!	!	!	!	!	!	!	!LO:TX:t=a	!	!	!
8GG/	8f#/L 8cc	.	.	8f#/L	p	8cc\L	.	.	.	8f#/	Do-	(8cc\L	Do-	.	.	(8aa\L	.	8ccc\L	.
8G\J	8g/J 8b	.	.	8g/J	.	8b\J	.	.	.	8g/	-mi-	8b\J)	-mi-	.	.	8gg\J)	.	8bb\J	.
!LO:LB:g=original	!LO:LB:g=original	!	!	!	!	!	!	!	!	!	!	!	!	!	!	!	!	!	!
=44	=44	=44	=44	=44	=44	=44	=44	=44	=44	=44	=44	=44	=44	=44	=44	=44	=44	=44	=44
*tremolo	*	*	*	*	*	*	*	*	*	*	*	*	*	*	*	*	*	*	*
!LO:TX:t=P:problem=mixed beam	!	!	!	!	!	!	!	!	!	!	!	!	!	!	!	!	!	!	!
8GG/L	4g/ 4b	.	.	4g/	.	4b/	.	.	.	4g/	-nus	4b\	-nus	2.r	.	4gg\	.	4bb\	.
8G\	.	.	.	.	.	.	.	.	.	.	.	.	.	.	.	.	.	.	.
8GG/	4r	.	.	4r	.	4r	.	.	.	4r	.	4r	.	.	.	4r	.	4r	.
8G\	.	.	.	.	.	.	.	.	.	.	.	.	.	.	.	.	.	.	.
8GG/	8cc/L 8ee	.	.	8cc/L	.	8ee\L	.	.	.	8cc\	De-	(8ee\L	De-	.	.	(8ccc\L	.	8eee\L	.
8G\J	8b/J 8dd	.	.	8b/J	.	8dd\J	.	.	.	8b\	.	8dd\J)	.	.	.	8bb\J)	.	8ddd\J	.
=45	=45	=45	=45	=45	=45	=45	=45	=45	=45	=45	=45	=45	=45	=45	=45	=45	=45	=45	=45
!LO:TX:t=P:problem=mixed beam	!	!	!	!	!	!	!	!	!	!	!	!	!	!	!	!	!	!	!
8GG/L	4b/ 4dd	.	.	4b\	.	4dd\	.	.	.	4b\	-us	4dd\	-us	2.r	.	4bb\	.	4ddd\	.
8G\	.	.	.	.	.	.	.	.	.	.	.	.	.	.	.	.	.	.	.
8GG/	4r	.	.	8a/L	.	4r	.	.	.	4r	.	4r	.	.	.	4r	.	4r	.
8G\	.	.	.	8b/J	.	.	.	.	.	.	.	.	.	.	.	.	.	.	.
8GG/	8a/L 8cc 8ff#	.	.	4r	.	8ff#\L	.	.	.	8cc\	Sa-	8ff#\	Sa-	.	.	(8aa\L	.	8fff#\L	.
8G\J	8b/J 8gg	.	.	.	.	8gg\J	.	.	.	8cc\	-ba-	8ff#\	-ba-	.	.	8bb\J)	.	8ggg\J	.
!	!	!	!	!LO:LB:g=original	!	!LO:LB:g=original	!	!	!	!LO:LB:g=original	!	!	!	!	!	!	!	!LO:LB:g=original	!
=46	=46	=46	=46	=46	=46	=46	=46	=46	=46	=46	=46	=46	=46	=46	=46	=46	=46	=46	=46
!LO:TX:t=P:problem=mixed beam	!	!	!	!	!	!	!	!	!	!	!	!	!	!	!	!	!	!	!
8GG/L	4b/ 4gg	.	.	4b/	.	4gg\	.	1.r	.	4b\	-oth	4gg\	-oth	4r	4r	4bb\	.	4ggg\	.
8G\	.	.	.	.	.	.	.	.	.	.	.	.	.	.	.	.	.	.	.
8GG/	4r	.	.	4r	.	4r	.	.	.	4r	.	4r	.	4r	4r	4r	.	4r	.
8G\	.	.	.	.	.	.	.	.	.	.	.	.	.	.	.	.	.	.	.
8GG/	8ff#\L 8ccc	.	.	(8ff#\L	.	(8ccc\L	.	.	.	4r	.	4r	.	4d/	4a\	(8aa\L	.	8ddd\L	.
8G\J	8gg\J 8bb	.	.	8gg\J)	.	8bb\J)	.	.	.	.	.	.	.	.	.	8gg\J)	.	8bb\J	.
!	!	!	!	!	!	!	!	!	!	!	!	!LO:LB:g=original	!	!	!	!	!	!	!
=47	=47	=47	=47	=47	=47	=47	=47	=47	=47	=47	=47	=47	=47	=47	=47	=47	=47	=47	=47
*	*	*	*	*	*	*	*	*	*	*2\right	*	*2\right	*	*	*	*	*	*	*
!LO:TX:t=P:problem=mixed beam	!	!	!	!	!	!	!	!	!	!	!	!	!	!	!	!	!LO:DY:a:t=Piano	!	!LO:DY:a:t=pia
8GG/L	4gg\ 4bb	.	.	4gg\	.	4bb\	.	.	.	2b\	Sa-	2gg\	Sa-	4g\	4b\	8gg\L	p	4bb\	p
8G\	.	.	.	.	.	.	.	.	.	.	.	.	.	.	.	8gg\	.	.	.
8GG/	4gg\ 4bb	.	.	4gg\	.	4bb\	.	.	.	.	.	.	.	4g\	4b\	8gg\	.	4bb\	.
8G\	.	.	.	.	.	.	.	.	.	.	.	.	.	.	.	8gg\J	.	.	.
8GG/	4gg\ 4bb	.	.	4gg\	.	4bb\	.	.	.	4b\	-ba-	4gg\	-ba-	4g\	4b\	4gg\	.	4bb\	.
8G\J	.	.	.	.	.	.	.	.	.	.	.	.	.	.	.	.	.	.	.
*Xtremolo	*	*	*	*	*	*	*	*	*	*	*	*	*	*	*	*	*	*	*
=48	=48	=48	=48	=48	=48	=48	=48	=48	=48	=48	=48	=48	=48	=48	=48	=48	=48	=48	=48
*	*	*	*	*2\right	*	*2\right	*	*	*	*	*	*	*	*	*	*	*	*	*
2GG;/ 2G	2gg;\ 2bb	.	.	2gg\	.	2bb\	.	2.r	.	2b\	-oth.	2gg\	-oth.	2g\	2b\	2gg\	.	2bb\	.
!	!LO:TX:b:t=TaKtow 48	!	!	!LO:TX:a:t=48:color=red	!	!LO:TX:b:t=48 Taktow	!	!	!	!	!	!LO:TX:b:i:t=Verte Cito Pleni	!	!	!LO:TX:b:t=48	!LO:TX:b:t=48	!	!LO:TX:b:t=48 TaKtow	!
4r	4r	.	.	4r	.	4r	.	.	.	4r	.	4r	.	4r	4r	4r	.	4r	.
==	==	==	==	==	==	==	==	==	==	==	==	==	==	==	==	==	==	==	==
*-	*-	*-	*-	*-	*-	*-	*-	*-	*-	*-	*-	*-	*-	*-	*-	*-	*-	*-	*-
!!!system-decoration: [(s1,s2)][(s3,s4)][(s5,s6,s7)][(s8,s9)]{(s10,s11)}
!!!RDF**kern: < = below
!!!RDF**kern: > = above
!!!RDF**kern: | = vertical stroke
!!!ENC: Mateusz Solarz
!!!END: 2020-09-10
!!!ENC: Marta Chmielewska
!!!END: 2022-01-27
!!!YEC: Copyright 2022 Narodowy Instytut Fryderyka Chopina (https://polishscores.org)
!!!YEM: License CC-BY-4.0 (https://creativecommons.org/licenses/by/4.0)
